X: 7
M:6/8
L:1/8
K:G
d|gfg agf|gfe dBG|cBA BAG|EAA A2 D|
E/2F/2GA G2 e|dBG A2 B|DGc B2 A|B>GG G3||

